; generated by PrusaSlicer 2.4.1+win64 on 2022-04-05 at 02:21:53 UTC

; 

; external perimeters extrusion width = 0.60mm
; perimeters extrusion width = 0.50mm
; infill extrusion width = 0.50mm
; solid infill extrusion width = 0.50mm
; top infill extrusion width = 0.45mm
; support material extrusion width = 0.38mm
; first layer extrusion width = 0.42mm

; external perimeters extrusion width = 0.60mm
; perimeters extrusion width = 0.50mm
; infill extrusion width = 0.50mm
; solid infill extrusion width = 0.50mm
; top infill extrusion width = 0.45mm
; support material extrusion width = 0.38mm
; first layer extrusion width = 0.42mm

M73 P0 R214
M73 Q0 S217
M201 X1000 Y1000 Z200 E5000 ; sets maximum accelerations, mm/sec^2
M203 X200 Y200 Z12 E120 ; sets maximum feedrates, mm / sec
M204 P1250 R1250 T1250 ; sets acceleration (P, T) and retract acceleration (R), mm/sec^2
M205 X8.00 Y8.00 Z0.40 E4.50 ; sets the jerk limits, mm/sec
M205 S0 T0 ; sets the minimum extruding and travel feed rate, mm/sec
M107
;TYPE:Custom
M862.3 P "MK3SMMU2S" ; printer model check
M862.1 P0.4 ; nozzle diameter check
M115 U3.10.1 ; tell printer latest fw version
G90 ; use absolute coordinates
M83 ; extruder relative mode
M104 S240 ; set extruder temp
M140 S85 ; set bed temp
Tx
M190 S85 ; wait for bed temp
M109 S240 ; wait for extruder temp
G28 W ; home all without mesh bed level
G80 ; mesh bed leveling

;go outside print area
G1 Y-3 F1000
G1 Z0.4 F1000
; select extruder
Tc
; purge line
G1 X55 F2000
G1 Z0.3 F1000
G92 E0
G1 X240 E25 F2200
G1 Y-2 F1000
G1 X55 E25 F1400
G1 Z0.2 F1000
M73 Q0 S216
G1 X5 E4 F1000

M221 S95
G92 E0

; Don't change E values below. Excessive value can damage the printer.

M907 E538 ; set extruder motor current
G21 ; set units to millimeters
G90 ; use absolute coordinates
M83 ; use relative distances for extrusion
M900 K0.08 ; Filament gcode LA 1.5
M900 K45 ; Filament gcode LA 1.0
M107
;LAYER_CHANGE
;Z:0.2
;HEIGHT:0.2
;BEFORE_LAYER_CHANGE
G92 E0.0
;0.2


G1 E-1 F2100
G1 Z.2 F720
;AFTER_LAYER_CHANGE
;0.2
G1 Z.4
G1 X58.39 Y56.039 F10800
G1 Z.2 F720
G1 E1 F2100
M204 S800
;TYPE:Skirt/Brim
;WIDTH:0.42
G1 F1200
G1 X59.435 Y55.163 E.04278
G1 X60.375 Y54.969 E.03008
G1 X189.625 Y54.969 E4.05254
G1 X191.165 Y55.536 E.05145
G1 X194.325 Y58.223 E.13007
G1 X195.162 Y60.034 E.06255
G1 X195.162 Y104.659 E1.39917
G1 X194.325 Y106.469 E.06255
G1 X191.099 Y109.211 E.13274
G1 X138.874 Y150.508 E2.08756
G1 X137.4 Y151.02 E.04894
G1 X112.6 Y151.02 E.77759
G1 X111.126 Y150.508 E.04894
G1 X58.901 Y109.211 E2.08756
G1 X58.118 Y108.093 E.04278
G1 X57.998 Y107.346 E.02371
G1 X57.998 Y57.346 E1.56771
G1 X58.372 Y56.097 E.0409
M204 S1000
; printing object Cleat.stl id:1 copy 0
;WIPE_START
M73 P0 R213
G1 F8640
G1 X59.435 Y55.163 E-.32671
G1 X60.375 Y54.969 E-.22155
G1 X62.115 Y54.969 E-.40174
;WIPE_END
G1 E-.05 F2100
G1 Z.4 F720
G1 X123.241 Y130.839 F10800
G1 Z.2 F720
G1 E1 F2100
M204 S800
;TYPE:Perimeter
G1 F1200
G1 X123.656 Y130.556 E.01576
G1 X124.053 Y130.377 E.01366
G1 X124.508 Y130.255 E.01476
G1 X124.979 Y130.211 E.01483
G1 X125.451 Y130.248 E.01483
G1 X125.909 Y130.364 E.01483
G1 X126.344 Y130.556 E.0149
G1 X126.767 Y130.842 E.016
G1 X127.107 Y131.173 E.0149
G1 X127.384 Y131.554 E.01476
G1 X127.581 Y131.943 E.01366
G1 X127.723 Y132.394 E.01483
G1 X127.787 Y132.9 E.016
G1 X127.764 Y133.375 E.0149
G1 X127.66 Y133.837 E.01483
G1 X127.482 Y134.272 E.01476
G1 X127.253 Y134.643 E.01366
G1 X126.945 Y134.999 E.01476
G1 X126.577 Y135.3 E.0149
G1 X126.132 Y135.549 E.016
G1 X125.683 Y135.704 E.0149
G1 X125.216 Y135.781 E.01483
G1 X124.743 Y135.777 E.01483
G1 X124.277 Y135.694 E.01483
G1 X123.832 Y135.533 E.01483
G1 X123.423 Y135.3 E.01476
G1 X123.082 Y135.025 E.01373
G1 X122.747 Y134.643 E.01593
G1 X122.5 Y134.237 E.0149
G1 X122.328 Y133.799 E.01476
G1 X122.236 Y133.373 E.01366
G1 X122.213 Y132.9 E.01483
G1 X122.277 Y132.394 E.016
G1 X122.42 Y131.941 E.0149
G1 X122.636 Y131.52 E.01483
G1 X122.92 Y131.142 E.01483
G1 X123.197 Y130.88 E.01194
M204 S1000
G1 X123.5 Y131.113 F10800
M204 S800
;TYPE:External perimeter
G1 F1200
G1 X123.84 Y130.887 E.01279
G1 X124.181 Y130.733 E.01174
G1 X124.575 Y130.627 E.01279
G1 X124.982 Y130.59 E.01282
G1 X125.39 Y130.621 E.01282
G1 X125.786 Y130.721 E.01282
G1 X126.161 Y130.887 E.01284
G1 X126.528 Y131.135 E.0139
G1 X126.821 Y131.421 E.01284
G1 X127.062 Y131.751 E.01279
G1 X127.23 Y132.085 E.01174
G1 X127.353 Y132.475 E.01282
G1 X127.409 Y132.915 E.0139
G1 X127.389 Y133.324 E.01284
G1 X127.299 Y133.723 E.01282
G1 X127.144 Y134.101 E.01279
G1 X126.948 Y134.419 E.01174
G1 X126.681 Y134.728 E.01279
G1 X126.364 Y134.987 E.01284
G1 X125.977 Y135.204 E.0139
G1 X125.59 Y135.337 E.01284
G1 X125.186 Y135.403 E.01282
G1 X124.778 Y135.4 E.01282
G1 X124.375 Y135.328 E.01282
G1 X123.991 Y135.189 E.01282
G1 X123.636 Y134.987 E.01279
G1 X123.344 Y134.752 E.01177
G1 X123.052 Y134.419 E.01387
G1 X122.84 Y134.069 E.01284
G1 X122.69 Y133.689 E.01279
G1 X122.611 Y133.323 E.01174
G1 X122.591 Y132.915 E.01282
G1 X122.647 Y132.475 E.0139
G1 X122.77 Y132.085 E.01284
G1 X122.957 Y131.721 E.01282
G1 X123.202 Y131.394 E.01282
G1 X123.456 Y131.154 E.01094
M204 S1000
G1 X123.441 Y130.718 F10800
;WIPE_START
G1 F8640
G1 X123.84 Y130.887 E-.1079
G1 X124.181 Y130.733 E-.08646
G1 X124.575 Y130.627 E-.09422
G1 X124.982 Y130.59 E-.0944
G1 X125.39 Y130.621 E-.09441
G1 X125.786 Y130.721 E-.0944
G1 X126.161 Y130.887 E-.09459
G1 X126.528 Y131.135 E-.10234
G1 X126.821 Y131.421 E-.09459
G1 X127.042 Y131.725 E-.08669
;WIPE_END
G1 E-.05 F2100
G1 Z.4 F720
G1 X113.387 Y118.144 F10800
G1 Z.2 F720
G1 E1 F2100
M204 S800
;TYPE:Perimeter
G1 F1200
G1 X136.613 Y118.144 E.72823
G1 X136.613 Y147.856 E.9316
G1 X113.387 Y147.856 E.72823
G1 X113.387 Y118.204 E.92972
M204 S1000
G1 X113.01 Y117.767 F10800
M204 S800
;TYPE:External perimeter
G1 F1200
G1 X136.99 Y117.767 E.75188
G1 X136.99 Y148.233 E.95524
G1 X113.01 Y148.233 E.75188
G1 X113.01 Y117.827 E.95336
M204 S1000
G1 X113.392 Y117.886 F10800
;WIPE_START
G1 F8640
G1 X117.124 Y117.817 E-.95
;WIPE_END
G1 E-.05 F2100
G1 Z.4 F720
G1 X136.5 Y119.024 F10800
G1 Z.2 F720
G1 E1 F2100
M204 S800
;TYPE:Solid infill
;WIDTH:0.422165
G1 F1200
G1 X135.903 Y118.427 E.02663
G1 X135.366 Y118.427 E.01691
G1 X136.33 Y119.391 E.04298
G1 X136.33 Y119.927 E.01691
G1 X134.83 Y118.427 E.0669
G1 X134.294 Y118.427 E.01691
G1 X136.33 Y120.463 E.09082
G1 X136.33 Y121 E.01691
G1 X133.757 Y118.427 E.11474
G1 X133.221 Y118.427 E.01691
G1 X136.33 Y121.536 E.13866
G1 X136.33 Y122.072 E.01691
G1 X132.685 Y118.427 E.16258
G1 X132.148 Y118.427 E.01691
G1 X136.33 Y122.609 E.18649
G1 X136.33 Y123.145 E.01691
G1 X131.612 Y118.427 E.21041
G1 X131.076 Y118.427 E.01691
G1 X136.33 Y123.681 E.23433
G1 X136.33 Y124.218 E.01691
G1 X130.539 Y118.427 E.25825
G1 X130.003 Y118.427 E.01691
G1 X136.33 Y124.754 E.28217
G1 X136.33 Y125.29 E.01691
G1 X129.467 Y118.427 E.30609
G1 X128.93 Y118.427 E.01691
G1 X136.33 Y125.827 E.33
G1 X136.33 Y126.363 E.01691
G1 X128.394 Y118.427 E.35392
G1 X127.858 Y118.427 E.01691
G1 X136.33 Y126.899 E.37784
G1 X136.33 Y127.436 E.01691
G1 X127.321 Y118.427 E.40176
G1 X126.785 Y118.427 E.01691
G1 X136.33 Y127.972 E.42568
G1 X136.33 Y128.508 E.01691
G1 X126.249 Y118.427 E.4496
G1 X125.712 Y118.427 E.01691
G1 X136.33 Y129.045 E.47352
G1 X136.33 Y129.581 E.01691
G1 X125.176 Y118.427 E.49743
G1 X124.64 Y118.427 E.01691
G1 X136.33 Y130.117 E.52135
G1 X136.33 Y130.654 E.01691
G1 X124.103 Y118.427 E.54527
G1 X123.567 Y118.427 E.01691
G1 X136.33 Y131.19 E.56919
G1 X136.33 Y131.726 E.01691
G1 X123.031 Y118.427 E.59311
G1 X122.494 Y118.427 E.01691
G1 X136.33 Y132.263 E.61703
G1 X136.33 Y132.799 E.01691
G1 X121.958 Y118.427 E.64095
G1 X121.422 Y118.427 E.01691
G1 X136.33 Y133.335 E.66486
G1 X136.33 Y133.872 E.01691
G1 X120.885 Y118.427 E.68878
G1 X120.349 Y118.427 E.01691
G1 X136.33 Y134.408 E.7127
G1 X136.33 Y134.944 E.01691
G1 X119.813 Y118.427 E.73662
G1 X119.276 Y118.427 E.01691
G1 X136.33 Y135.481 E.76054
G1 X136.33 Y136.017 E.01691
M73 Q0 S215
G1 X118.74 Y118.427 E.78446
G1 X118.204 Y118.427 E.01691
G1 X136.33 Y136.553 E.80837
G1 X136.33 Y137.09 E.01691
G1 X117.667 Y118.427 E.83229
G1 X117.131 Y118.427 E.01691
G1 X136.33 Y137.626 E.85621
G1 X136.33 Y138.162 E.01691
G1 X116.595 Y118.427 E.88013
G1 X116.058 Y118.427 E.01691
G1 X136.33 Y138.699 E.90405
G1 X136.33 Y139.235 E.01691
G1 X115.522 Y118.427 E.92797
G1 X114.986 Y118.427 E.01691
G1 X136.33 Y139.771 E.95189
G1 X136.33 Y140.308 E.01691
G1 X127.828 Y131.806 E.37916
G1 X127.627 Y131.406 E.01412
G1 X127.322 Y130.987 E.01633
G1 X126.946 Y130.622 E.01654
G1 X126.481 Y130.308 E.01768
G1 X126.21 Y130.187 E.00937
G1 X114.449 Y118.427 E.52447
G1 X113.913 Y118.427 E.01691
G1 X125.45 Y129.964 E.51452
G1 X124.977 Y129.927 E.01497
G1 X124.886 Y129.936 E.00289
G1 X113.67 Y118.72 E.50018
G1 X113.67 Y119.256 E.01691
G1 X124.404 Y129.99 E.47868
G1 X123.981 Y130.104 E.01381
G1 X113.67 Y119.793 E.45982
G1 X113.67 Y120.329 E.01691
G1 X123.608 Y130.268 E.44322
G1 X123.275 Y130.47 E.01231
G1 X113.67 Y120.865 E.42835
G1 X113.67 Y121.402 E.01691
G1 X122.972 Y130.704 E.41485
G1 X122.698 Y130.966 E.01196
G1 X113.67 Y121.938 E.40263
G1 X113.67 Y122.474 E.01691
G1 X122.468 Y131.273 E.39237
G1 X122.396 Y131.369 E.00381
G1 X122.271 Y131.612 E.0086
G1 X113.67 Y123.011 E.38358
G1 X113.67 Y123.547 E.01691
G1 X122.109 Y131.986 E.37636
G1 X121.991 Y132.405 E.0137
G1 X113.67 Y124.083 E.37109
G1 X113.67 Y124.62 E.01691
G1 X121.93 Y132.88 E.36838
G1 X121.964 Y133.45 E.018
G1 X113.5 Y124.986 E.37744
M204 S1000
;WIPE_START
G1 F8640
G1 X116.409 Y127.896 E-.95
;WIPE_END
G1 E-.05 F2100
G1 Z.4 F720
G1 X127.823 Y132.337 F10800
G1 Z.2 F720
G1 E1 F2100
M204 S800
G1 F1200
G1 X136.33 Y140.844 E.37938
G1 X136.33 Y141.38 E.01691
G1 X128.06 Y133.11 E.36882
G1 X128.045 Y133.413 E.00956
M73 P0 R212
G1 X128.005 Y133.592 E.00576
G1 X136.33 Y141.917 E.37127
G1 X136.33 Y142.453 E.01691
G1 X127.893 Y134.016 E.37628
G1 X127.737 Y134.396 E.01296
G1 X136.33 Y142.989 E.38324
G1 X136.33 Y143.526 E.01691
G1 X127.533 Y134.728 E.39233
G1 X127.295 Y135.027 E.01204
G1 X136.33 Y144.062 E.40294
G1 X136.33 Y144.598 E.01691
G1 X127.028 Y135.296 E.41483
G1 X126.733 Y135.537 E.01202
G1 X136.33 Y145.135 E.428
G1 X136.33 Y145.671 E.01691
G1 X126.389 Y135.73 E.44335
G1 X126.248 Y135.808 E.00509
G1 X126.012 Y135.89 E.00785
G1 X136.33 Y146.207 E.46014
G1 X136.33 Y146.744 E.01691
G1 X125.592 Y136.006 E.47888
G1 X125.238 Y136.064 E.01132
G1 X125.113 Y136.063 E.00394
G1 X136.33 Y147.28 E.50025
G1 X136.33 Y147.573 E.00925
G1 X136.087 Y147.573 E.00767
G1 X124.332 Y135.818 E.52422
M204 S1000
;WIPE_START
G1 F8640
G1 X127.241 Y138.728 E-.95
;WIPE_END
G1 E-.05 F2100
G1 Z.4 F720
G1 X113.5 Y125.523 F10800
G1 Z.2 F720
G1 E1 F2100
M204 S800
G1 F1200
G1 X122.185 Y134.207 E.38731
G1 X122.246 Y134.363 E.00527
G1 X122.518 Y134.811 E.01654
G1 X122.886 Y135.23 E.01757
G1 X123.263 Y135.534 E.0153
G1 X123.713 Y135.79 E.01633
G1 X123.799 Y135.821 E.00286
G1 X135.551 Y147.573 E.52409
G1 X135.014 Y147.573 E.01691
G1 X113.67 Y126.229 E.95189
G1 X113.67 Y126.765 E.01691
G1 X134.478 Y147.573 E.92797
G1 X133.942 Y147.573 E.01691
G1 X113.67 Y127.301 E.90405
G1 X113.67 Y127.838 E.01691
G1 X133.405 Y147.573 E.88013
G1 X132.869 Y147.573 E.01691
G1 X113.67 Y128.374 E.85621
G1 X113.67 Y128.91 E.01691
G1 X132.333 Y147.573 E.83229
G1 X131.796 Y147.573 E.01691
G1 X113.67 Y129.447 E.80837
G1 X113.67 Y129.983 E.01691
G1 X131.26 Y147.573 E.78446
G1 X130.724 Y147.573 E.01691
G1 X113.67 Y130.519 E.76054
G1 X113.67 Y131.056 E.01691
G1 X130.187 Y147.573 E.73662
G1 X129.651 Y147.573 E.01691
G1 X113.67 Y131.592 E.7127
G1 X113.67 Y132.128 E.01691
G1 X129.115 Y147.573 E.68878
G1 X128.578 Y147.573 E.01691
G1 X113.67 Y132.665 E.66486
G1 X113.67 Y133.201 E.01691
G1 X128.042 Y147.573 E.64095
G1 X127.506 Y147.573 E.01691
G1 X113.67 Y133.737 E.61703
G1 X113.67 Y134.274 E.01691
M73 P1 R212
G1 X126.969 Y147.573 E.59311
G1 X126.433 Y147.573 E.01691
M73 Q1 S215
G1 X113.67 Y134.81 E.56919
G1 X113.67 Y135.346 E.01691
G1 X125.897 Y147.573 E.54527
G1 X125.36 Y147.573 E.01691
G1 X113.67 Y135.883 E.52135
G1 X113.67 Y136.419 E.01691
G1 X124.824 Y147.573 E.49743
G1 X124.288 Y147.573 E.01691
M73 Q1 S214
G1 X113.67 Y136.955 E.47352
G1 X113.67 Y137.492 E.01691
G1 X123.751 Y147.573 E.4496
G1 X123.215 Y147.573 E.01691
G1 X113.67 Y138.028 E.42568
G1 X113.67 Y138.564 E.01691
G1 X122.679 Y147.573 E.40176
G1 X122.142 Y147.573 E.01691
G1 X113.67 Y139.101 E.37784
G1 X113.67 Y139.637 E.01691
G1 X121.606 Y147.573 E.35392
G1 X121.07 Y147.573 E.01691
G1 X113.67 Y140.173 E.33
G1 X113.67 Y140.71 E.01691
G1 X120.533 Y147.573 E.30609
G1 X119.997 Y147.573 E.01691
G1 X113.67 Y141.246 E.28217
G1 X113.67 Y141.782 E.01691
G1 X119.461 Y147.573 E.25825
G1 X118.924 Y147.573 E.01691
G1 X113.67 Y142.319 E.23433
G1 X113.67 Y142.855 E.01691
G1 X118.388 Y147.573 E.21041
G1 X117.852 Y147.573 E.01691
G1 X113.67 Y143.391 E.18649
G1 X113.67 Y143.928 E.01691
G1 X117.315 Y147.573 E.16258
G1 X116.779 Y147.573 E.01691
G1 X113.67 Y144.464 E.13866
G1 X113.67 Y145 E.01691
G1 X116.243 Y147.573 E.11474
G1 X115.706 Y147.573 E.01691
G1 X113.67 Y145.537 E.09082
G1 X113.67 Y146.073 E.01691
G1 X115.17 Y147.573 E.0669
G1 X114.634 Y147.573 E.01691
G1 X113.67 Y146.609 E.04298
G1 X113.67 Y147.146 E.01691
G1 X114.267 Y147.743 E.02663
M204 S1000
; stop printing object Cleat.stl id:1 copy 0
; printing object RailMount.stl id:0 copy 0
;WIPE_START
G1 F8640
G1 X113.67 Y147.146 E-.195
G1 X113.67 Y146.609 E-.12384
G1 X114.634 Y147.573 E-.31473
G1 X115.17 Y147.573 E-.12384
G1 X114.58 Y146.983 E-.19258
;WIPE_END
G1 E-.05 F2100
G1 Z.4 F720
G1 X106.107 Y84.104 F10800
G1 Z.2 F720
G1 E1 F2100
M204 S800
;TYPE:Support material
;WIDTH:0.42
G1 F1200
G1 X105.834 Y84.138 E.00864
G1 X105.553 Y84.128 E.00881
G1 X105.277 Y84.075 E.00882
G1 X105.017 Y83.982 E.00865
G1 X104.83 Y83.86 E.00701
G1 X104.543 Y83.593 E.01227
G1 X104.357 Y83.339 E.00988
G1 X104.262 Y83.096 E.00816
G1 X104.194 Y82.714 E.01217
G1 X106.107 Y82.714 E.06
G1 X106.107 Y84.048 E.04181
M204 S1000
G1 X105.727 Y83.965 F10800
M204 S800
G1 F1200
G1 X105.727 Y83.054 E.02857
G1 X105.308 Y83.054 E.01314
G1 X105.308 Y83.726 E.02107
G1 X105.169 Y83.676 E.00464
G1 X105.008 Y83.569 E.00604
G1 X104.889 Y83.463 E.00501
G1 X104.889 Y82.884 E.01814
M204 S1000
;WIPE_START
G1 F8640
G1 X104.889 Y83.463 E-.13362
G1 X105.008 Y83.569 E-.03689
G1 X105.169 Y83.676 E-.0445
G1 X105.308 Y83.726 E-.03416
G1 X105.308 Y83.054 E-.15514
G1 X105.727 Y83.054 E-.09674
G1 X105.727 Y83.965 E-.21037
;WIPE_END
G1 E-.28858 F2100
G1 Z.4 F720
G1 X104.375 Y81.661 F10800
G1 Z.2 F720
G1 E1 F2100
M204 S800
;TYPE:Support material interface
;WIDTH:0.38
G1 F1200
G1 X104.375 Y82.346 E.01921
G1 X104.891 Y82.346 E.01445
G1 X104.891 Y81.113 E.03456
G1 X105.096 Y80.997 E.00661
G1 X105.406 Y80.891 E.00919
G1 X105.406 Y82.346 E.04079
G1 X105.922 Y82.346 E.01445
G1 X105.922 Y80.845 E.04209
G1 X106.244 Y80.864 E.00905
G1 X106.438 Y80.917 E.00562
G1 X106.438 Y82.346 E.04008
G1 X106.475 Y82.346 E.00105
G1 X106.475 Y83.767 E.03981
G1 X106.728 Y83.651 E.00779
G1 X106.953 Y83.49 E.00777
M204 S1000
;WIPE_START
G1 F8640
G1 X106.728 Y83.651 E-.06404
G1 X106.475 Y83.767 E-.06418
G1 X106.475 Y82.346 E-.32797
G1 X106.438 Y82.346 E-.00861
G1 X106.438 Y80.917 E-.33016
G1 X106.244 Y80.864 E-.04627
G1 X105.922 Y80.845 E-.07455
G1 X105.922 Y80.993 E-.03422
;WIPE_END
G1 E-.05 F2100
G1 Z.4 F720
G1 X107.469 Y82.346 F10800
G1 Z.2 F720
G1 E1 F2100
M204 S800
G1 F1200
G1 X107.469 Y82.643 E.00831
G1 X107.317 Y83.033 E.01175
G1 X107.194 Y83.234 E.0066
G1 X106.953 Y83.49 E.00985
G1 X106.953 Y82.346 E.03205
G1 X106.475 Y82.346 E.0134
G1 X106.475 Y82.06 E.00804
M204 S1000
G1 X106.905 Y81.237 F10800
M204 S800
;TYPE:Support material
;WIDTH:0.42
G1 F1200
G1 X107.075 Y81.395 E.00726
G1 X107.205 Y81.569 E.00681
G1 X107.314 Y81.776 E.00733
G1 X107.382 Y81.978 E.00671
G1 X106.843 Y81.978 E.01691
G1 X106.843 Y81.18 E.02503
G1 X106.864 Y81.199 E.00088
M204 S1000
;WIPE_START
G1 F8640
G1 X106.843 Y81.18 E-.00649
G1 X106.843 Y81.978 E-.18434
G1 X107.382 Y81.978 E-.12454
G1 X107.314 Y81.776 E-.04942
G1 X107.205 Y81.569 E-.05395
